X: 4
T: The Queen Of The Rushes
R: jig
M: 6/8
L: 1/8
K: Gmaj
dc|:B2G GdB|c2A AGA|B2G GdA|cAG FGA|B2G B2G|c2A c2A|ded cAd|1 ~G3 Gdc:|2 GAG G g2|||:fed efg|afd cAd|~g3 bag|afd d2e|=fed e^fg|afd cAd|ded cAd|1 G3 G g2:|2 G3 GBc||d (3Bcd gdB|d (3Bcd gdB|cBc ABc|ABc ABc|d (3Bcd gdB|d (3Bcd gdc|cBc Adc|BGF GBc:||


Tune 710	Setting 27798

